(Scotto34 V2 - Bottom)
(Machine)
(  vendor: Makera)
(  model: Carvera 3-axis)
(  description: Makera Carvera 3-axis)
(T2  D=1.5 CR=0 - ZMIN=-1.4 - flat end mill)
G90 G94
G17
G21

(Screw Holes)
T2 M6
S12000 M3
G54
G0 X2.275 Y70.4
Z15
Z2.5
G1 Z0.65 F1000
X2.268 Z0.604
X2.246 Z0.562
X2.213 Z0.529
X2.171 Z0.507
X2.125 Z0.5
X2.05
X2.004 Y70.393
X1.962 Y70.371
X1.929 Y70.338
X1.907 Y70.296
X1.9 Y70.25
G3 X2.6 Y70.25 Z0.462 I0.35 J0
X1.9 Y70.25 Z0.423 I-0.35 J0
X2.6 Y70.25 Z0.385 I0.35 J0
X1.9 Y70.25 Z0.346 I-0.35 J0
X2.6 Y70.25 Z0.308 I0.35 J0
X1.9 Y70.25 Z0.27 I-0.35 J0
X2.6 Y70.25 Z0.231 I0.35 J0
X1.9 Y70.25 Z0.193 I-0.35 J0
X2.6 Y70.25 Z0.154 I0.35 J0
X1.9 Y70.25 Z0.116 I-0.35 J0
X2.6 Y70.25 Z0.077 I0.35 J0
X1.9 Y70.25 Z0.039 I-0.35 J0
X2.6 Y70.25 Z0.001 I0.35 J0
X1.9 Y70.25 Z-0.038 I-0.35 J0
X2.6 Y70.25 Z-0.076 I0.35 J0
X1.9 Y70.25 Z-0.115 I-0.35 J0
X2.6 Y70.25 Z-0.153 I0.35 J0
X1.9 Y70.25 Z-0.191 I-0.35 J0
X2.6 Y70.25 Z-0.23 I0.35 J0
X1.9 Y70.25 Z-0.268 I-0.35 J0
X2.6 Y70.25 Z-0.307 I0.35 J0
X1.9 Y70.25 Z-0.345 I-0.35 J0
X2.6 Y70.25 Z-0.383 I0.35 J0
X1.9 Y70.25 Z-0.422 I-0.35 J0
X2.6 Y70.25 Z-0.46 I0.35 J0
X1.9 Y70.25 Z-0.499 I-0.35 J0
X2.6 Y70.25 Z-0.537 I0.35 J0
X1.9 Y70.25 Z-0.576 I-0.35 J0
X2.6 Y70.25 Z-0.614 I0.35 J0
X1.9 Y70.25 Z-0.652 I-0.35 J0
X2.6 Y70.25 Z-0.691 I0.35 J0
X1.9 Y70.25 Z-0.729 I-0.35 J0
X2.6 Y70.25 Z-0.768 I0.35 J0
X1.9 Y70.25 Z-0.806 I-0.35 J0
X2.6 Y70.25 Z-0.844 I0.35 J0
X1.9 Y70.25 Z-0.883 I-0.35 J0
X2.6 Y70.25 Z-0.921 I0.35 J0
X1.9 Y70.25 Z-0.96 I-0.35 J0
X2.6 Y70.25 Z-0.998 I0.35 J0
X1.9 Y70.25 Z-1.037 I-0.35 J0
X2.6 Y70.25 Z-1.075 I0.35 J0
X1.9 Y70.25 Z-1.113 I-0.35 J0
X2.6 Y70.25 Z-1.152 I0.35 J0
X1.9 Y70.25 Z-1.19 I-0.35 J0
X2.6 Y70.25 Z-1.229 I0.35 J0
X1.9 Y70.25 Z-1.267 I-0.35 J0
X2.6 Y70.25 Z-1.305 I0.35 J0
X1.9 Y70.25 Z-1.344 I-0.35 J0
X2.6 Y70.25 Z-1.382 I0.35 J0
X2.291 Y70.598 Z-1.4 I-0.35 J0
X2.209 Y69.902 I-0.041 J-0.348
X2.291 Y70.598 I0.041 J0.348
G1 X2.244 Y70.596
X2.2 Y70.579
X2.163 Y70.55
X2.137 Y70.511
X2.124 Y70.466
X2.116 Y70.392
X2.11 Y70.346 Z-1.393
X2.105 Y70.304 Z-1.371
X2.101 Y70.271 Z-1.338
X2.099 Y70.25 Z-1.296
X2.098 Y70.243 Z-1.25
G0 Z5
X2.275 Y19.4
Z2.5
G1 Z0.65 F1000
X2.268 Z0.604
X2.246 Z0.562
X2.213 Z0.529
X2.171 Z0.507
X2.125 Z0.5
X2.05
X2.004 Y19.393
X1.962 Y19.371
X1.929 Y19.338
X1.907 Y19.296
X1.9 Y19.25
G3 X2.6 Y19.25 Z0.462 I0.35 J0
X1.9 Y19.25 Z0.423 I-0.35 J0
X2.6 Y19.25 Z0.385 I0.35 J0
X1.9 Y19.25 Z0.346 I-0.35 J0
X2.6 Y19.25 Z0.308 I0.35 J0
X1.9 Y19.25 Z0.27 I-0.35 J0
X2.6 Y19.25 Z0.231 I0.35 J0
X1.9 Y19.25 Z0.193 I-0.35 J0
X2.6 Y19.25 Z0.154 I0.35 J0
X1.9 Y19.25 Z0.116 I-0.35 J0
X2.6 Y19.25 Z0.077 I0.35 J0
X1.9 Y19.25 Z0.039 I-0.35 J0
X2.6 Y19.25 Z0.001 I0.35 J0
X1.9 Y19.25 Z-0.038 I-0.35 J0
X2.6 Y19.25 Z-0.076 I0.35 J0
X1.9 Y19.25 Z-0.115 I-0.35 J0
X2.6 Y19.25 Z-0.153 I0.35 J0
X1.9 Y19.25 Z-0.191 I-0.35 J0
X2.6 Y19.25 Z-0.23 I0.35 J0
X1.9 Y19.25 Z-0.268 I-0.35 J0
X2.6 Y19.25 Z-0.307 I0.35 J0
X1.9 Y19.25 Z-0.345 I-0.35 J0
X2.6 Y19.25 Z-0.383 I0.35 J0
X1.9 Y19.25 Z-0.422 I-0.35 J0
X2.6 Y19.25 Z-0.46 I0.35 J0
X1.9 Y19.25 Z-0.499 I-0.35 J0
X2.6 Y19.25 Z-0.537 I0.35 J0
X1.9 Y19.25 Z-0.576 I-0.35 J0
X2.6 Y19.25 Z-0.614 I0.35 J0
X1.9 Y19.25 Z-0.652 I-0.35 J0
X2.6 Y19.25 Z-0.691 I0.35 J0
X1.9 Y19.25 Z-0.729 I-0.35 J0
X2.6 Y19.25 Z-0.768 I0.35 J0
X1.9 Y19.25 Z-0.806 I-0.35 J0
X2.6 Y19.25 Z-0.844 I0.35 J0
X1.9 Y19.25 Z-0.883 I-0.35 J0
X2.6 Y19.25 Z-0.921 I0.35 J0
X1.9 Y19.25 Z-0.96 I-0.35 J0
X2.6 Y19.25 Z-0.998 I0.35 J0
X1.9 Y19.25 Z-1.037 I-0.35 J0
X2.6 Y19.25 Z-1.075 I0.35 J0
X1.9 Y19.25 Z-1.113 I-0.35 J0
X2.6 Y19.25 Z-1.152 I0.35 J0
X1.9 Y19.25 Z-1.19 I-0.35 J0
X2.6 Y19.25 Z-1.229 I0.35 J0
X1.9 Y19.25 Z-1.267 I-0.35 J0
X2.6 Y19.25 Z-1.305 I0.35 J0
X1.9 Y19.25 Z-1.344 I-0.35 J0
X2.6 Y19.25 Z-1.382 I0.35 J0
X2.291 Y19.598 Z-1.4 I-0.35 J0
X2.209 Y18.902 I-0.041 J-0.348
X2.291 Y19.598 I0.041 J0.348
G1 X2.244 Y19.596
X2.2 Y19.579
X2.163 Y19.55
X2.137 Y19.511
X2.124 Y19.466
X2.116 Y19.392
X2.11 Y19.346 Z-1.393
X2.105 Y19.304 Z-1.371
X2.101 Y19.271 Z-1.338
X2.099 Y19.25 Z-1.296
X2.098 Y19.243 Z-1.25
G0 Z5
X56.275 Y2.4
Z2.5
G1 Z0.65 F1000
X56.268 Z0.604
X56.246 Z0.562
X56.213 Z0.529
X56.171 Z0.507
X56.125 Z0.5
X56.05
X56.004 Y2.393
X55.962 Y2.371
X55.929 Y2.338
X55.907 Y2.296
X55.9 Y2.25
G3 X56.6 Y2.25 Z0.462 I0.35 J0
X55.9 Y2.25 Z0.423 I-0.35 J0
X56.6 Y2.25 Z0.385 I0.35 J0
X55.9 Y2.25 Z0.346 I-0.35 J0
X56.6 Y2.25 Z0.308 I0.35 J0
X55.9 Y2.25 Z0.27 I-0.35 J0
X56.6 Y2.25 Z0.231 I0.35 J0
X55.9 Y2.25 Z0.193 I-0.35 J0
X56.6 Y2.25 Z0.154 I0.35 J0
X55.9 Y2.25 Z0.116 I-0.35 J0
X56.6 Y2.25 Z0.077 I0.35 J0
X55.9 Y2.25 Z0.039 I-0.35 J0
X56.6 Y2.25 Z0.001 I0.35 J0
X55.9 Y2.25 Z-0.038 I-0.35 J0
X56.6 Y2.25 Z-0.076 I0.35 J0
X55.9 Y2.25 Z-0.115 I-0.35 J0
X56.6 Y2.25 Z-0.153 I0.35 J0
X55.9 Y2.25 Z-0.191 I-0.35 J0
X56.6 Y2.25 Z-0.23 I0.35 J0
X55.9 Y2.25 Z-0.268 I-0.35 J0
X56.6 Y2.25 Z-0.307 I0.35 J0
X55.9 Y2.25 Z-0.345 I-0.35 J0
X56.6 Y2.25 Z-0.383 I0.35 J0
X55.9 Y2.25 Z-0.422 I-0.35 J0
X56.6 Y2.25 Z-0.46 I0.35 J0
X55.9 Y2.25 Z-0.499 I-0.35 J0
X56.6 Y2.25 Z-0.537 I0.35 J0
X55.9 Y2.25 Z-0.576 I-0.35 J0
X56.6 Y2.25 Z-0.614 I0.35 J0
X55.9 Y2.25 Z-0.652 I-0.35 J0
X56.6 Y2.25 Z-0.691 I0.35 J0
X55.9 Y2.25 Z-0.729 I-0.35 J0
X56.6 Y2.25 Z-0.768 I0.35 J0
X55.9 Y2.25 Z-0.806 I-0.35 J0
X56.6 Y2.25 Z-0.844 I0.35 J0
X55.9 Y2.25 Z-0.883 I-0.35 J0
X56.6 Y2.25 Z-0.921 I0.35 J0
X55.9 Y2.25 Z-0.96 I-0.35 J0
X56.6 Y2.25 Z-0.998 I0.35 J0
X55.9 Y2.25 Z-1.037 I-0.35 J0
X56.6 Y2.25 Z-1.075 I0.35 J0
X55.9 Y2.25 Z-1.113 I-0.35 J0
X56.6 Y2.25 Z-1.152 I0.35 J0
X55.9 Y2.25 Z-1.19 I-0.35 J0
X56.6 Y2.25 Z-1.229 I0.35 J0
X55.9 Y2.25 Z-1.267 I-0.35 J0
X56.6 Y2.25 Z-1.305 I0.35 J0
X55.9 Y2.25 Z-1.344 I-0.35 J0
X56.6 Y2.25 Z-1.382 I0.35 J0
X56.291 Y2.598 Z-1.4 I-0.35 J0
X56.209 Y1.902 I-0.041 J-0.348
X56.291 Y2.598 I0.041 J0.348
G1 X56.244 Y2.596
X56.2 Y2.579
X56.163 Y2.55
X56.137 Y2.511
X56.124 Y2.466
X56.116 Y2.392
X56.11 Y2.346 Z-1.393
X56.105 Y2.304 Z-1.371
X56.101 Y2.271 Z-1.338
X56.099 Y2.25 Z-1.296
X56.098 Y2.243 Z-1.25
G0 Z5
X92.275 Y2.4
Z2.5
G1 Z0.65 F1000
X92.268 Z0.604
X92.246 Z0.562
X92.213 Z0.529
X92.171 Z0.507
X92.125 Z0.5
X92.05
X92.004 Y2.393
X91.962 Y2.371
X91.929 Y2.338
X91.907 Y2.296
X91.9 Y2.25
G3 X92.6 Y2.25 Z0.462 I0.35 J0
X91.9 Y2.25 Z0.423 I-0.35 J0
X92.6 Y2.25 Z0.385 I0.35 J0
X91.9 Y2.25 Z0.346 I-0.35 J0
X92.6 Y2.25 Z0.308 I0.35 J0
X91.9 Y2.25 Z0.27 I-0.35 J0
X92.6 Y2.25 Z0.231 I0.35 J0
X91.9 Y2.25 Z0.193 I-0.35 J0
X92.6 Y2.25 Z0.154 I0.35 J0
X91.9 Y2.25 Z0.116 I-0.35 J0
X92.6 Y2.25 Z0.077 I0.35 J0
X91.9 Y2.25 Z0.039 I-0.35 J0
X92.6 Y2.25 Z0.001 I0.35 J0
X91.9 Y2.25 Z-0.038 I-0.35 J0
X92.6 Y2.25 Z-0.076 I0.35 J0
X91.9 Y2.25 Z-0.115 I-0.35 J0
X92.6 Y2.25 Z-0.153 I0.35 J0
X91.9 Y2.25 Z-0.191 I-0.35 J0
X92.6 Y2.25 Z-0.23 I0.35 J0
X91.9 Y2.25 Z-0.268 I-0.35 J0
X92.6 Y2.25 Z-0.307 I0.35 J0
X91.9 Y2.25 Z-0.345 I-0.35 J0
X92.6 Y2.25 Z-0.383 I0.35 J0
X91.9 Y2.25 Z-0.422 I-0.35 J0
X92.6 Y2.25 Z-0.46 I0.35 J0
X91.9 Y2.25 Z-0.499 I-0.35 J0
X92.6 Y2.25 Z-0.537 I0.35 J0
X91.9 Y2.25 Z-0.576 I-0.35 J0
X92.6 Y2.25 Z-0.614 I0.35 J0
X91.9 Y2.25 Z-0.652 I-0.35 J0
X92.6 Y2.25 Z-0.691 I0.35 J0
X91.9 Y2.25 Z-0.729 I-0.35 J0
X92.6 Y2.25 Z-0.768 I0.35 J0
X91.9 Y2.25 Z-0.806 I-0.35 J0
X92.6 Y2.25 Z-0.844 I0.35 J0
X91.9 Y2.25 Z-0.883 I-0.35 J0
X92.6 Y2.25 Z-0.921 I0.35 J0
X91.9 Y2.25 Z-0.96 I-0.35 J0
X92.6 Y2.25 Z-0.998 I0.35 J0
X91.9 Y2.25 Z-1.037 I-0.35 J0
X92.6 Y2.25 Z-1.075 I0.35 J0
X91.9 Y2.25 Z-1.113 I-0.35 J0
X92.6 Y2.25 Z-1.152 I0.35 J0
X91.9 Y2.25 Z-1.19 I-0.35 J0
X92.6 Y2.25 Z-1.229 I0.35 J0
X91.9 Y2.25 Z-1.267 I-0.35 J0
X92.6 Y2.25 Z-1.305 I0.35 J0
X91.9 Y2.25 Z-1.344 I-0.35 J0
X92.6 Y2.25 Z-1.382 I0.35 J0
X92.291 Y2.598 Z-1.4 I-0.35 J0
X92.209 Y1.902 I-0.041 J-0.348
X92.291 Y2.598 I0.041 J0.348
G1 X92.244 Y2.596
X92.2 Y2.579
X92.163 Y2.55
X92.137 Y2.511
X92.124 Y2.466
X92.116 Y2.392
X92.11 Y2.346 Z-1.393
X92.105 Y2.304 Z-1.371
X92.101 Y2.271 Z-1.338
X92.099 Y2.25 Z-1.296
X92.098 Y2.243 Z-1.25
G0 Z5
X122.275 Y2.4
Z2.5
G1 Z0.65 F1000
X122.268 Z0.604
X122.246 Z0.562
X122.213 Z0.529
X122.171 Z0.507
X122.125 Z0.5
X122.05
X122.004 Y2.393
X121.962 Y2.371
X121.929 Y2.338
X121.907 Y2.296
X121.9 Y2.25
G3 X122.6 Y2.25 Z0.462 I0.35 J0
X121.9 Y2.25 Z0.423 I-0.35 J0
X122.6 Y2.25 Z0.385 I0.35 J0
X121.9 Y2.25 Z0.346 I-0.35 J0
X122.6 Y2.25 Z0.308 I0.35 J0
X121.9 Y2.25 Z0.27 I-0.35 J0
X122.6 Y2.25 Z0.231 I0.35 J0
X121.9 Y2.25 Z0.193 I-0.35 J0
X122.6 Y2.25 Z0.154 I0.35 J0
X121.9 Y2.25 Z0.116 I-0.35 J0
X122.6 Y2.25 Z0.077 I0.35 J0
X121.9 Y2.25 Z0.039 I-0.35 J0
X122.6 Y2.25 Z0.001 I0.35 J0
X121.9 Y2.25 Z-0.038 I-0.35 J0
X122.6 Y2.25 Z-0.076 I0.35 J0
X121.9 Y2.25 Z-0.115 I-0.35 J0
X122.6 Y2.25 Z-0.153 I0.35 J0
X121.9 Y2.25 Z-0.191 I-0.35 J0
X122.6 Y2.25 Z-0.23 I0.35 J0
X121.9 Y2.25 Z-0.268 I-0.35 J0
X122.6 Y2.25 Z-0.307 I0.35 J0
X121.9 Y2.25 Z-0.345 I-0.35 J0
X122.6 Y2.25 Z-0.383 I0.35 J0
X121.9 Y2.25 Z-0.422 I-0.35 J0
X122.6 Y2.25 Z-0.46 I0.35 J0
X121.9 Y2.25 Z-0.499 I-0.35 J0
X122.6 Y2.25 Z-0.537 I0.35 J0
X121.9 Y2.25 Z-0.576 I-0.35 J0
X122.6 Y2.25 Z-0.614 I0.35 J0
X121.9 Y2.25 Z-0.652 I-0.35 J0
X122.6 Y2.25 Z-0.691 I0.35 J0
X121.9 Y2.25 Z-0.729 I-0.35 J0
X122.6 Y2.25 Z-0.768 I0.35 J0
X121.9 Y2.25 Z-0.806 I-0.35 J0
X122.6 Y2.25 Z-0.844 I0.35 J0
X121.9 Y2.25 Z-0.883 I-0.35 J0
X122.6 Y2.25 Z-0.921 I0.35 J0
X121.9 Y2.25 Z-0.96 I-0.35 J0
X122.6 Y2.25 Z-0.998 I0.35 J0
X121.9 Y2.25 Z-1.037 I-0.35 J0
X122.6 Y2.25 Z-1.075 I0.35 J0
X121.9 Y2.25 Z-1.113 I-0.35 J0
X122.6 Y2.25 Z-1.152 I0.35 J0
X121.9 Y2.25 Z-1.19 I-0.35 J0
X122.6 Y2.25 Z-1.229 I0.35 J0
X121.9 Y2.25 Z-1.267 I-0.35 J0
X122.6 Y2.25 Z-1.305 I0.35 J0
X121.9 Y2.25 Z-1.344 I-0.35 J0
X122.6 Y2.25 Z-1.382 I0.35 J0
X122.291 Y2.598 Z-1.4 I-0.35 J0
X122.209 Y1.902 I-0.041 J-0.348
X122.291 Y2.598 I0.041 J0.348
G1 X122.244 Y2.596
X122.2 Y2.579
X122.163 Y2.55
X122.137 Y2.511
X122.124 Y2.466
X122.116 Y2.392
X122.11 Y2.346 Z-1.393
X122.105 Y2.304 Z-1.371
X122.101 Y2.271 Z-1.338
X122.099 Y2.25 Z-1.296
X122.098 Y2.243 Z-1.25
G0 Z5
X158.275 Y2.4
Z2.5
G1 Z0.65 F1000
X158.268 Z0.604
X158.246 Z0.562
X158.213 Z0.529
X158.171 Z0.507
X158.125 Z0.5
X158.05
X158.004 Y2.393
X157.962 Y2.371
X157.929 Y2.338
X157.907 Y2.296
X157.9 Y2.25
G3 X158.6 Y2.25 Z0.462 I0.35 J0
X157.9 Y2.25 Z0.423 I-0.35 J0
X158.6 Y2.25 Z0.385 I0.35 J0
X157.9 Y2.25 Z0.346 I-0.35 J0
X158.6 Y2.25 Z0.308 I0.35 J0
X157.9 Y2.25 Z0.27 I-0.35 J0
X158.6 Y2.25 Z0.231 I0.35 J0
X157.9 Y2.25 Z0.193 I-0.35 J0
X158.6 Y2.25 Z0.154 I0.35 J0
X157.9 Y2.25 Z0.116 I-0.35 J0
X158.6 Y2.25 Z0.077 I0.35 J0
X157.9 Y2.25 Z0.039 I-0.35 J0
X158.6 Y2.25 Z0.001 I0.35 J0
X157.9 Y2.25 Z-0.038 I-0.35 J0
X158.6 Y2.25 Z-0.076 I0.35 J0
X157.9 Y2.25 Z-0.115 I-0.35 J0
X158.6 Y2.25 Z-0.153 I0.35 J0
X157.9 Y2.25 Z-0.191 I-0.35 J0
X158.6 Y2.25 Z-0.23 I0.35 J0
X157.9 Y2.25 Z-0.268 I-0.35 J0
X158.6 Y2.25 Z-0.307 I0.35 J0
X157.9 Y2.25 Z-0.345 I-0.35 J0
X158.6 Y2.25 Z-0.383 I0.35 J0
X157.9 Y2.25 Z-0.422 I-0.35 J0
X158.6 Y2.25 Z-0.46 I0.35 J0
X157.9 Y2.25 Z-0.499 I-0.35 J0
X158.6 Y2.25 Z-0.537 I0.35 J0
X157.9 Y2.25 Z-0.576 I-0.35 J0
X158.6 Y2.25 Z-0.614 I0.35 J0
X157.9 Y2.25 Z-0.652 I-0.35 J0
X158.6 Y2.25 Z-0.691 I0.35 J0
X157.9 Y2.25 Z-0.729 I-0.35 J0
X158.6 Y2.25 Z-0.768 I0.35 J0
X157.9 Y2.25 Z-0.806 I-0.35 J0
X158.6 Y2.25 Z-0.844 I0.35 J0
X157.9 Y2.25 Z-0.883 I-0.35 J0
X158.6 Y2.25 Z-0.921 I0.35 J0
X157.9 Y2.25 Z-0.96 I-0.35 J0
X158.6 Y2.25 Z-0.998 I0.35 J0
X157.9 Y2.25 Z-1.037 I-0.35 J0
X158.6 Y2.25 Z-1.075 I0.35 J0
X157.9 Y2.25 Z-1.113 I-0.35 J0
X158.6 Y2.25 Z-1.152 I0.35 J0
X157.9 Y2.25 Z-1.19 I-0.35 J0
X158.6 Y2.25 Z-1.229 I0.35 J0
X157.9 Y2.25 Z-1.267 I-0.35 J0
X158.6 Y2.25 Z-1.305 I0.35 J0
X157.9 Y2.25 Z-1.344 I-0.35 J0
X158.6 Y2.25 Z-1.382 I0.35 J0
X158.291 Y2.598 Z-1.4 I-0.35 J0
X158.209 Y1.902 I-0.041 J-0.348
X158.291 Y2.598 I0.041 J0.348
G1 X158.244 Y2.596
X158.2 Y2.579
X158.163 Y2.55
X158.137 Y2.511
X158.124 Y2.466
X158.116 Y2.392
X158.11 Y2.346 Z-1.393
X158.105 Y2.304 Z-1.371
X158.101 Y2.271 Z-1.338
X158.099 Y2.25 Z-1.296
X158.098 Y2.243 Z-1.25
G0 Z5
X212.275 Y19.4
Z2.5
G1 Z0.65 F1000
X212.268 Z0.604
X212.246 Z0.562
X212.213 Z0.529
X212.171 Z0.507
X212.125 Z0.5
X212.05
X212.004 Y19.393
X211.962 Y19.371
X211.929 Y19.338
X211.907 Y19.296
X211.9 Y19.25
G3 X212.6 Y19.25 Z0.462 I0.35 J0
X211.9 Y19.25 Z0.423 I-0.35 J0
X212.6 Y19.25 Z0.385 I0.35 J0
X211.9 Y19.25 Z0.346 I-0.35 J0
X212.6 Y19.25 Z0.308 I0.35 J0
X211.9 Y19.25 Z0.27 I-0.35 J0
X212.6 Y19.25 Z0.231 I0.35 J0
X211.9 Y19.25 Z0.193 I-0.35 J0
X212.6 Y19.25 Z0.154 I0.35 J0
X211.9 Y19.25 Z0.116 I-0.35 J0
X212.6 Y19.25 Z0.077 I0.35 J0
X211.9 Y19.25 Z0.039 I-0.35 J0
X212.6 Y19.25 Z0.001 I0.35 J0
X211.9 Y19.25 Z-0.038 I-0.35 J0
X212.6 Y19.25 Z-0.076 I0.35 J0
X211.9 Y19.25 Z-0.115 I-0.35 J0
X212.6 Y19.25 Z-0.153 I0.35 J0
X211.9 Y19.25 Z-0.191 I-0.35 J0
X212.6 Y19.25 Z-0.23 I0.35 J0
X211.9 Y19.25 Z-0.268 I-0.35 J0
X212.6 Y19.25 Z-0.307 I0.35 J0
X211.9 Y19.25 Z-0.345 I-0.35 J0
X212.6 Y19.25 Z-0.383 I0.35 J0
X211.9 Y19.25 Z-0.422 I-0.35 J0
X212.6 Y19.25 Z-0.46 I0.35 J0
X211.9 Y19.25 Z-0.499 I-0.35 J0
X212.6 Y19.25 Z-0.537 I0.35 J0
X211.9 Y19.25 Z-0.576 I-0.35 J0
X212.6 Y19.25 Z-0.614 I0.35 J0
X211.9 Y19.25 Z-0.652 I-0.35 J0
X212.6 Y19.25 Z-0.691 I0.35 J0
X211.9 Y19.25 Z-0.729 I-0.35 J0
X212.6 Y19.25 Z-0.768 I0.35 J0
X211.9 Y19.25 Z-0.806 I-0.35 J0
X212.6 Y19.25 Z-0.844 I0.35 J0
X211.9 Y19.25 Z-0.883 I-0.35 J0
X212.6 Y19.25 Z-0.921 I0.35 J0
X211.9 Y19.25 Z-0.96 I-0.35 J0
X212.6 Y19.25 Z-0.998 I0.35 J0
X211.9 Y19.25 Z-1.037 I-0.35 J0
X212.6 Y19.25 Z-1.075 I0.35 J0
X211.9 Y19.25 Z-1.113 I-0.35 J0
X212.6 Y19.25 Z-1.152 I0.35 J0
X211.9 Y19.25 Z-1.19 I-0.35 J0
X212.6 Y19.25 Z-1.229 I0.35 J0
X211.9 Y19.25 Z-1.267 I-0.35 J0
X212.6 Y19.25 Z-1.305 I0.35 J0
X211.9 Y19.25 Z-1.344 I-0.35 J0
X212.6 Y19.25 Z-1.382 I0.35 J0
X212.291 Y19.598 Z-1.4 I-0.35 J0
X212.209 Y18.902 I-0.041 J-0.348
X212.291 Y19.598 I0.041 J0.348
G1 X212.244 Y19.596
X212.2 Y19.579
X212.163 Y19.55
X212.137 Y19.511
X212.124 Y19.466
X212.116 Y19.392
X212.11 Y19.346 Z-1.393
X212.105 Y19.304 Z-1.371
X212.101 Y19.271 Z-1.338
X212.099 Y19.25 Z-1.296
X212.098 Y19.243 Z-1.25
G0 Z5
X212.275 Y70.4
Z2.5
G1 Z0.65 F1000
X212.268 Z0.604
X212.246 Z0.562
X212.213 Z0.529
X212.171 Z0.507
X212.125 Z0.5
X212.05
X212.004 Y70.393
X211.962 Y70.371
X211.929 Y70.338
X211.907 Y70.296
X211.9 Y70.25
G3 X212.6 Y70.25 Z0.462 I0.35 J0
X211.9 Y70.25 Z0.423 I-0.35 J0
X212.6 Y70.25 Z0.385 I0.35 J0
X211.9 Y70.25 Z0.346 I-0.35 J0
X212.6 Y70.25 Z0.308 I0.35 J0
X211.9 Y70.25 Z0.27 I-0.35 J0
X212.6 Y70.25 Z0.231 I0.35 J0
X211.9 Y70.25 Z0.193 I-0.35 J0
X212.6 Y70.25 Z0.154 I0.35 J0
X211.9 Y70.25 Z0.116 I-0.35 J0
X212.6 Y70.25 Z0.077 I0.35 J0
X211.9 Y70.25 Z0.039 I-0.35 J0
X212.6 Y70.25 Z0.001 I0.35 J0
X211.9 Y70.25 Z-0.038 I-0.35 J0
X212.6 Y70.25 Z-0.076 I0.35 J0
X211.9 Y70.25 Z-0.115 I-0.35 J0
X212.6 Y70.25 Z-0.153 I0.35 J0
X211.9 Y70.25 Z-0.191 I-0.35 J0
X212.6 Y70.25 Z-0.23 I0.35 J0
X211.9 Y70.25 Z-0.268 I-0.35 J0
X212.6 Y70.25 Z-0.307 I0.35 J0
X211.9 Y70.25 Z-0.345 I-0.35 J0
X212.6 Y70.25 Z-0.383 I0.35 J0
X211.9 Y70.25 Z-0.422 I-0.35 J0
X212.6 Y70.25 Z-0.46 I0.35 J0
X211.9 Y70.25 Z-0.499 I-0.35 J0
X212.6 Y70.25 Z-0.537 I0.35 J0
X211.9 Y70.25 Z-0.576 I-0.35 J0
X212.6 Y70.25 Z-0.614 I0.35 J0
X211.9 Y70.25 Z-0.652 I-0.35 J0
X212.6 Y70.25 Z-0.691 I0.35 J0
X211.9 Y70.25 Z-0.729 I-0.35 J0
X212.6 Y70.25 Z-0.768 I0.35 J0
X211.9 Y70.25 Z-0.806 I-0.35 J0
X212.6 Y70.25 Z-0.844 I0.35 J0
X211.9 Y70.25 Z-0.883 I-0.35 J0
X212.6 Y70.25 Z-0.921 I0.35 J0
X211.9 Y70.25 Z-0.96 I-0.35 J0
X212.6 Y70.25 Z-0.998 I0.35 J0
X211.9 Y70.25 Z-1.037 I-0.35 J0
X212.6 Y70.25 Z-1.075 I0.35 J0
X211.9 Y70.25 Z-1.113 I-0.35 J0
X212.6 Y70.25 Z-1.152 I0.35 J0
X211.9 Y70.25 Z-1.19 I-0.35 J0
X212.6 Y70.25 Z-1.229 I0.35 J0
X211.9 Y70.25 Z-1.267 I-0.35 J0
X212.6 Y70.25 Z-1.305 I0.35 J0
X211.9 Y70.25 Z-1.344 I-0.35 J0
X212.6 Y70.25 Z-1.382 I0.35 J0
X212.291 Y70.598 Z-1.4 I-0.35 J0
X212.209 Y69.902 I-0.041 J-0.348
X212.291 Y70.598 I0.041 J0.348
G1 X212.244 Y70.596
X212.2 Y70.579
X212.163 Y70.55
X212.137 Y70.511
X212.124 Y70.466
X212.116 Y70.392
X212.11 Y70.346 Z-1.393
X212.105 Y70.304 Z-1.371
X212.101 Y70.271 Z-1.338
X212.099 Y70.25 Z-1.296
X212.098 Y70.243 Z-1.25
G0 Z5
X122.275 Y70.4
Z2.5
G1 Z0.65 F1000
X122.268 Z0.604
X122.246 Z0.562
X122.213 Z0.529
X122.171 Z0.507
X122.125 Z0.5
X122.05
X122.004 Y70.393
X121.962 Y70.371
X121.929 Y70.338
X121.907 Y70.296
X121.9 Y70.25
G3 X122.6 Y70.25 Z0.462 I0.35 J0
X121.9 Y70.25 Z0.423 I-0.35 J0
X122.6 Y70.25 Z0.385 I0.35 J0
X121.9 Y70.25 Z0.346 I-0.35 J0
X122.6 Y70.25 Z0.308 I0.35 J0
X121.9 Y70.25 Z0.27 I-0.35 J0
X122.6 Y70.25 Z0.231 I0.35 J0
X121.9 Y70.25 Z0.193 I-0.35 J0
X122.6 Y70.25 Z0.154 I0.35 J0
X121.9 Y70.25 Z0.116 I-0.35 J0
X122.6 Y70.25 Z0.077 I0.35 J0
X121.9 Y70.25 Z0.039 I-0.35 J0
X122.6 Y70.25 Z0.001 I0.35 J0
X121.9 Y70.25 Z-0.038 I-0.35 J0
X122.6 Y70.25 Z-0.076 I0.35 J0
X121.9 Y70.25 Z-0.115 I-0.35 J0
X122.6 Y70.25 Z-0.153 I0.35 J0
X121.9 Y70.25 Z-0.191 I-0.35 J0
X122.6 Y70.25 Z-0.23 I0.35 J0
X121.9 Y70.25 Z-0.268 I-0.35 J0
X122.6 Y70.25 Z-0.307 I0.35 J0
X121.9 Y70.25 Z-0.345 I-0.35 J0
X122.6 Y70.25 Z-0.383 I0.35 J0
X121.9 Y70.25 Z-0.422 I-0.35 J0
X122.6 Y70.25 Z-0.46 I0.35 J0
X121.9 Y70.25 Z-0.499 I-0.35 J0
X122.6 Y70.25 Z-0.537 I0.35 J0
X121.9 Y70.25 Z-0.576 I-0.35 J0
X122.6 Y70.25 Z-0.614 I0.35 J0
X121.9 Y70.25 Z-0.652 I-0.35 J0
X122.6 Y70.25 Z-0.691 I0.35 J0
X121.9 Y70.25 Z-0.729 I-0.35 J0
X122.6 Y70.25 Z-0.768 I0.35 J0
X121.9 Y70.25 Z-0.806 I-0.35 J0
X122.6 Y70.25 Z-0.844 I0.35 J0
X121.9 Y70.25 Z-0.883 I-0.35 J0
X122.6 Y70.25 Z-0.921 I0.35 J0
X121.9 Y70.25 Z-0.96 I-0.35 J0
X122.6 Y70.25 Z-0.998 I0.35 J0
X121.9 Y70.25 Z-1.037 I-0.35 J0
X122.6 Y70.25 Z-1.075 I0.35 J0
X121.9 Y70.25 Z-1.113 I-0.35 J0
X122.6 Y70.25 Z-1.152 I0.35 J0
X121.9 Y70.25 Z-1.19 I-0.35 J0
X122.6 Y70.25 Z-1.229 I0.35 J0
X121.9 Y70.25 Z-1.267 I-0.35 J0
X122.6 Y70.25 Z-1.305 I0.35 J0
X121.9 Y70.25 Z-1.344 I-0.35 J0
X122.6 Y70.25 Z-1.382 I0.35 J0
X122.291 Y70.598 Z-1.4 I-0.35 J0
X122.209 Y69.902 I-0.041 J-0.348
X122.291 Y70.598 I0.041 J0.348
G1 X122.244 Y70.596
X122.2 Y70.579
X122.163 Y70.55
X122.137 Y70.511
X122.124 Y70.466
X122.116 Y70.392
X122.11 Y70.346 Z-1.393
X122.105 Y70.304 Z-1.371
X122.101 Y70.271 Z-1.338
X122.099 Y70.25 Z-1.296
X122.098 Y70.243 Z-1.25
G0 Z5
X92.275 Y70.4
Z2.5
G1 Z0.65 F1000
X92.268 Z0.604
X92.246 Z0.562
X92.213 Z0.529
X92.171 Z0.507
X92.125 Z0.5
X92.05
X92.004 Y70.393
X91.962 Y70.371
X91.929 Y70.338
X91.907 Y70.296
X91.9 Y70.25
G3 X92.6 Y70.25 Z0.462 I0.35 J0
X91.9 Y70.25 Z0.423 I-0.35 J0
X92.6 Y70.25 Z0.385 I0.35 J0
X91.9 Y70.25 Z0.346 I-0.35 J0
X92.6 Y70.25 Z0.308 I0.35 J0
X91.9 Y70.25 Z0.27 I-0.35 J0
X92.6 Y70.25 Z0.231 I0.35 J0
X91.9 Y70.25 Z0.193 I-0.35 J0
X92.6 Y70.25 Z0.154 I0.35 J0
X91.9 Y70.25 Z0.116 I-0.35 J0
X92.6 Y70.25 Z0.077 I0.35 J0
X91.9 Y70.25 Z0.039 I-0.35 J0
X92.6 Y70.25 Z0.001 I0.35 J0
X91.9 Y70.25 Z-0.038 I-0.35 J0
X92.6 Y70.25 Z-0.076 I0.35 J0
X91.9 Y70.25 Z-0.115 I-0.35 J0
X92.6 Y70.25 Z-0.153 I0.35 J0
X91.9 Y70.25 Z-0.191 I-0.35 J0
X92.6 Y70.25 Z-0.23 I0.35 J0
X91.9 Y70.25 Z-0.268 I-0.35 J0
X92.6 Y70.25 Z-0.307 I0.35 J0
X91.9 Y70.25 Z-0.345 I-0.35 J0
X92.6 Y70.25 Z-0.383 I0.35 J0
X91.9 Y70.25 Z-0.422 I-0.35 J0
X92.6 Y70.25 Z-0.46 I0.35 J0
X91.9 Y70.25 Z-0.499 I-0.35 J0
X92.6 Y70.25 Z-0.537 I0.35 J0
X91.9 Y70.25 Z-0.576 I-0.35 J0
X92.6 Y70.25 Z-0.614 I0.35 J0
X91.9 Y70.25 Z-0.652 I-0.35 J0
X92.6 Y70.25 Z-0.691 I0.35 J0
X91.9 Y70.25 Z-0.729 I-0.35 J0
X92.6 Y70.25 Z-0.768 I0.35 J0
X91.9 Y70.25 Z-0.806 I-0.35 J0
X92.6 Y70.25 Z-0.844 I0.35 J0
X91.9 Y70.25 Z-0.883 I-0.35 J0
X92.6 Y70.25 Z-0.921 I0.35 J0
X91.9 Y70.25 Z-0.96 I-0.35 J0
X92.6 Y70.25 Z-0.998 I0.35 J0
X91.9 Y70.25 Z-1.037 I-0.35 J0
X92.6 Y70.25 Z-1.075 I0.35 J0
X91.9 Y70.25 Z-1.113 I-0.35 J0
X92.6 Y70.25 Z-1.152 I0.35 J0
X91.9 Y70.25 Z-1.19 I-0.35 J0
X92.6 Y70.25 Z-1.229 I0.35 J0
X91.9 Y70.25 Z-1.267 I-0.35 J0
X92.6 Y70.25 Z-1.305 I0.35 J0
X91.9 Y70.25 Z-1.344 I-0.35 J0
X92.6 Y70.25 Z-1.382 I0.35 J0
X92.291 Y70.598 Z-1.4 I-0.35 J0
X92.209 Y69.902 I-0.041 J-0.348
X92.291 Y70.598 I0.041 J0.348
G1 X92.244 Y70.596
X92.2 Y70.579
X92.163 Y70.55
X92.137 Y70.511
X92.124 Y70.466
X92.116 Y70.392
X92.11 Y70.346 Z-1.393
X92.105 Y70.304 Z-1.371
X92.101 Y70.271 Z-1.338
X92.099 Y70.25 Z-1.296
X92.098 Y70.243 Z-1.25
G0 Z15

(2D Cutout)
X212.986 Y15.723
Z15
Z5
G1 Z-0.35 F300
X212.984 Y15.73 Z-0.396 F1000
X212.981 Y15.751 Z-0.438
X212.976 Y15.784 Z-0.471
X212.969 Y15.825 Z-0.493
X212.961 Y15.871 Z-0.5
X212.937 Y16.019
X212.922 Y16.063
X212.894 Y16.101
X212.856 Y16.128
X212.811 Y16.143
X212.764 Y16.142
G2 X212.25 Y16.1 I-0.514 J3.108
G1 X168.25
G3 X161.4 Y9.25 I0 J-6.85
G1 Y2.25
G2 X158.25 Y-0.9 I-3.15 J0
G1 X122.25
G2 X119.245 Y1.305 I0 J3.15
G3 X112.711 Y6.1 I-6.534 J-2.055
G1 X101.789
G3 X95.255 Y1.305 I0 J-6.85
G2 X92.25 Y-0.9 I-3.005 J0.945
G1 X56.25
G2 X53.1 Y2.25 I0 J3.15
G1 Y9.25
G3 X46.25 Y16.1 I-6.85 J0
G1 X2.25
G2 X-0.9 Y19.25 I0 J3.15
G1 Y70.25
G2 X2.25 Y73.4 I3.15 J0
G1 X92.25
G2 X95.255 Y71.195 I0 J-3.15
G3 X101.789 Y66.4 I6.534 J2.055
G1 X112.711
G3 X119.245 Y71.195 I0 J6.85
G2 X122.25 Y73.4 I3.005 J-0.945
G1 X212.25
G2 X215.4 Y70.25 I0 J-3.15
G1 Y19.25
G2 X212.764 Y16.142 I-3.15 J0
G1 X212.72 Y16.127
X212.682 Y16.1
X212.655 Y16.061
X212.64 Y16.017
X212.641 Y15.97
X212.665 Y15.822
X212.673 Y15.776 Z-0.493
X212.68 Y15.735 Z-0.471
X212.685 Y15.702 Z-0.438
X212.688 Y15.681 Z-0.396
X212.69 Y15.674 Z-0.35
G0 Z5
X212.986 Y15.723
G1 Z-0.85 F300
X212.984 Y15.73 Z-0.896 F1000
X212.981 Y15.751 Z-0.938
X212.976 Y15.784 Z-0.971
X212.969 Y15.825 Z-0.993
X212.961 Y15.871 Z-1
X212.937 Y16.019
X212.922 Y16.063
X212.894 Y16.101
X212.856 Y16.128
X212.811 Y16.143
X212.764 Y16.142
G2 X212.25 Y16.1 I-0.514 J3.108
G1 X168.25
G3 X161.4 Y9.25 I0 J-6.85
G1 Y2.25
G2 X158.25 Y-0.9 I-3.15 J0
G1 X122.25
G2 X119.245 Y1.305 I0 J3.15
G3 X112.711 Y6.1 I-6.534 J-2.055
G1 X101.789
G3 X95.255 Y1.305 I0 J-6.85
G2 X92.25 Y-0.9 I-3.005 J0.945
G1 X56.25
G2 X53.1 Y2.25 I0 J3.15
G1 Y9.25
G3 X46.25 Y16.1 I-6.85 J0
G1 X2.25
G2 X-0.9 Y19.25 I0 J3.15
G1 Y70.25
G2 X2.25 Y73.4 I3.15 J0
G1 X92.25
G2 X95.255 Y71.195 I0 J-3.15
G3 X101.789 Y66.4 I6.534 J2.055
G1 X112.711
G3 X119.245 Y71.195 I0 J6.85
G2 X122.25 Y73.4 I3.005 J-0.945
G1 X212.25
G2 X215.4 Y70.25 I0 J-3.15
G1 Y19.25
G2 X212.764 Y16.142 I-3.15 J0
G1 X212.72 Y16.127
X212.682 Y16.1
X212.655 Y16.061
X212.64 Y16.017
X212.641 Y15.97
X212.665 Y15.822
X212.673 Y15.776 Z-0.993
X212.68 Y15.735 Z-0.971
X212.685 Y15.702 Z-0.938
X212.688 Y15.681 Z-0.896
X212.69 Y15.674 Z-0.85
G0 Z5
X212.986 Y15.723
G1 Z-1.25 F300
X212.984 Y15.73 Z-1.296 F1000
X212.981 Y15.751 Z-1.338
X212.976 Y15.784 Z-1.371
X212.969 Y15.825 Z-1.393
X212.961 Y15.871 Z-1.4
X212.937 Y16.019
X212.922 Y16.063
X212.894 Y16.101
X212.856 Y16.128
X212.811 Y16.143
X212.764 Y16.142
G2 X212.25 Y16.1 I-0.514 J3.108
G1 X168.25
G3 X161.4 Y9.25 I0 J-6.85
G1 Y2.25
G2 X158.25 Y-0.9 I-3.15 J0
G1 X122.25
G2 X119.245 Y1.305 I0 J3.15
G3 X112.711 Y6.1 I-6.534 J-2.055
G1 X101.789
G3 X95.255 Y1.305 I0 J-6.85
G2 X92.25 Y-0.9 I-3.005 J0.945
G1 X56.25
G2 X53.1 Y2.25 I0 J3.15
G1 Y9.25
G3 X46.25 Y16.1 I-6.85 J0
G1 X2.25
G2 X-0.9 Y19.25 I0 J3.15
G1 Y70.25
G2 X2.25 Y73.4 I3.15 J0
G1 X92.25
G2 X95.255 Y71.195 I0 J-3.15
G3 X101.789 Y66.4 I6.534 J2.055
G1 X112.711
G3 X119.245 Y71.195 I0 J6.85
G2 X122.25 Y73.4 I3.005 J-0.945
G1 X212.25
G2 X215.4 Y70.25 I0 J-3.15
G1 Y19.25
G2 X212.764 Y16.142 I-3.15 J0
G1 X212.728
X212.693 Y16.152
X212.663 Y16.172
X212.639 Y16.2
X212.616 Y16.228
X212.587 Y16.248
X212.553 Y16.26
X212.517 Y16.262
G2 X212.25 Y16.25 I-0.267 J2.988
G1 X168.25
G3 X161.25 Y9.25 I0 J-7
G1 Y2.25
G2 X158.25 Y-0.75 I-3 J0
G1 X122.25
G2 X119.389 Y1.35 I0 J3
G3 X112.711 Y6.25 I-6.678 J-2.1
G1 X101.789
G3 X95.112 Y1.35 I0 J-7
G2 X92.25 Y-0.75 I-2.862 J0.9
G1 X56.25
G2 X53.25 Y2.25 I0 J3
G1 Y9.25
G3 X46.25 Y16.25 I-7 J0
G1 X2.25
G2 X-0.75 Y19.25 I0 J3
G1 Y70.25
G2 X2.25 Y73.25 I3 J0
G1 X92.25
G2 X95.112 Y71.15 I0 J-3
G3 X101.789 Y66.25 I6.677 J2.1
G1 X112.711
G3 X119.389 Y71.15 I0 J7
G2 X122.25 Y73.25 I2.862 J-0.9
G1 X212.25
G2 X215.25 Y70.25 I0 J-3
G1 Y19.25
G2 X212.517 Y16.262 I-3 J0
G1 X212.471 Y16.25
X212.431 Y16.225
X212.401 Y16.189
X212.384 Y16.146
X212.381 Y16.099
X212.394 Y15.95
X212.398 Y15.904 Z-1.393
X212.402 Y15.862 Z-1.371
X212.405 Y15.829 Z-1.338
X212.407 Y15.808 Z-1.296
Y15.8 Z-1.25
G0 Z15
M5
G28
M30
